!!!!SEGMENT: pl-kk--kk-i-636--003-007_anonim--in-sabbato-sancto-responsorium-4tum.krn
!!!cenid: 18xx:4553
!!!COM: Anonim
!!!COM-rismID: pe30004985
!!!CDT:
!!!CNT:
!!!OPR: In Sabbato Sancto
!!!OTL: Responsorium 4tum
!!!OMV: 007
!!!PDT:
!!!AGN: Sacred
!!!YEC: Copyright 2022 Narodowy Instytut Fryderyka Chopina (https://polishscores.org)
!!!YEM: License CC-BY-4.0 (https://creativecommons.org/licenses/by/4.0)
!!!SMS-siglum: PL-Kk
!!!SMS-shelfmark: Kk.I.636
!!!SMS-variant:
!!!SMS-altvar:
!!!SMS-shelfwork: 003-007 M
!!!NIFC-rismSourceID: 1001216440
!!!NIFC-rismChildID: 1001216932
!!!NIFC-islandoraID: pl-kk:40786
!!!URL-pdf-islandora: https://repozytorium.nifc.pl/islandora/object/pl-kk%3A40786/datastream/PDF/view
!!!URL-scan: https://polish.musicsources.pl/pl/lokalizacje/galeria/rekopisy/7271/1 @EN{Scan on Polish Music Sources Website} @PL{Skany w portalu Dziedzictwo Muzyki Polskiej w otwartym dostępie}
!!!IIIF:
!!!ONB-nifc: UWAGA: Lamentacje i Responsoria In Sabbato Sancto na skanach: S – 15-20, A – 37-42, T – 60-66, B - 86-92. Każda Lamentacja i Responsorium to oddzielne pliki.
!!!AIN: 1 alto 1 bass 1 soprn 1 tenor
!!!key:
**kern	**text	**kern	**text	**kern	**text	**kern	**text
*part4	*part4	*part3	*part3	*part2	*part2	*part1	*part1
*staff4	*staff4	*staff3	*staff3	*staff2	*staff2	*staff1	*staff1
*I"Basso.	*	*I"Tenore.	*	*I"Alto.	*	*I"Soprano.	*
*I'B	*	*I'T	*	*I'A	*	*I'S	*
*Ibass	*	*Itenor	*	*Ialto	*	*Isoprn	*
*ICvox	*	*ICvox	*	*ICvox	*	*ICvox	*
*clefF4	*	*clefC4	*	*clefC3	*	*clefC1	*
*k[f#]	*	*k[f#]	*	*k[f#]	*	*k[f#]	*
*D:	*	*D:	*	*D:	*	*D:	*
*M3/4	*	*M3/4	*	*M3/4	*	*M3/4	*
=1	=1	=1	=1	=1	=1	=1	=1
!LO:TX:a:t=2	!	!LO:TX:a:t=2	!	!	!	!	!
1.r	.	1.r	.	4r	.	4r	.
.	.	.	.	4r	.	4r	.
.	.	.	.	8r	.	8r	.
.	.	.	.	8b\	Re-	8dd\	Re-
!	!	!	!	!LO:LB:g=original	!	!	!
=2	=2	=2	=2	=2	=2	=2	=2
.	.	.	.	4b\	-ces-	4dd\	-ces-
.	.	.	.	8g\	-sit	8b\	-sit
.	.	.	.	8r	.	8r	.
.	.	.	.	4r	.	4r	.
!	!	!	!	!	!	!LO:LB:g=original	!
=3	=3	=3	=3	=3	=3	=3	=3
!	!	!	!	!LO:TX:a:t=1	!	!LO:TX:a:t=1	!
4G\	Pas-	4e\	Pas-	2.r	.	2.r	.
8E\	-tor	8c#X\	-tor	.	.	.	.
8r	.	8r	.	.	.	.	.
4r	.	4r	.	.	.	.	.
!LO:LB:g=original	!	!	!	!	!	!	!
=4	=4	=4	=4	=4	=4	=4	=4
8D\	nos-	8A\	nos-	8f#\	nos-	8cc\	nos-
8D\	-ter	8A\	-ter	8f#\	-ter,	8cc\	-ter
4r	.	4r	.	4r	.	4r	.
4r	.	4r	.	4r	.	4r	.
!	!	!LO:LB:g=original	!	!	!	!	!
=5	=5	=5	=5	=5	=5	=5	=5
4D\	fons,	4d\	fons	4a\	fons	4ff#\	fons
8r	.	8r	.	8r	.	8r	.
4D\	a-	16c\LL	a-	16f#\LL	a-	16a\LL	a-
.	.	16B\JJ	.	16g\JJ	.	16b\JJ	.
.	.	8A\	.	8a\	.	8cc\	.
8D\	-quae	8A\	-quae	8a\	-quae	8cc\	-quae
!	!	!	!	!LO:LB:g=original	!	!	!
=6	=6	=6	=6	=6	=6	=6	=6
4D#X\	vi-	4F#/	vi-	4a\	vi-	4cc\	vi-
8D#\	-vae,	8F#/	-vae,	8a\	-vae,	8b\	-vae,
8r	.	8r	.	8r	.	8r	.
4r	.	4r	.	8a\	ad	8b\	ad
.	.	.	.	8a\	cu-	8b\	cu-
!	!	!	!	!	!	!LO:LB:g=original	!
=7	=7	=7	=7	=7	=7	=7	=7
4r	.	4r	.	4.b\	-jus	4.gg\	-jus
4r	.	4r	.	.	.	.	.
.	.	.	.	16a\LL	tran-	16ff#\LL	tran-
.	.	.	.	16g\JJ	.	16ee\JJ	.
4B\	tran-	4B\	tran-	8g\	-si-	8dd#X\	-si-
.	.	.	.	8g\	-tum	8dd#\	-tum
!LO:LB:g=original	!	!	!	!	!	!	!
=8	=8	=8	=8	=8	=8	=8	=8
4.B\	-si-	4.g\	-si-	4g\	sol,	4ee\	sol,
.	.	.	.	4r	.	4r	.
16B\LL	-tum	16g\LL	-tum	.	.	.	.
16A\JJ	.	16f#\JJ	.	.	.	.	.
8G\L	sol	8e\L	sol	8g\L	sol	4ee\	sol
8F#\J	.	8d\J	.	8b\J	.	.	.
!	!	!LO:LB:g=original	!	!LO:LB:g=original	!	!	!
=9	=9	=9	=9	=9	=9	=9	=9
4E\	ob-	4c#X\	obs-	8.cc#X\	ob-	8.aa\	ob-
.	.	.	.	16b\	-scu-	16gg\	-scu-
8r	.	8r	.	4a\	-ra-	4ff#\	-ra-
8A\	-scu-	8A\	-cu-	.	.	.	.
8A\	-ra-	8B\	-ra-	4g\	-tus	4ee\	-tus
8A\	-tus	8c#\	-tus	.	.	.	.
=10	=10	=10	=10	=10	=10	=10	=10
8.B\	est,	8.d\	est,	8f#\	est,	8dd\	est,
.	.	.	.	8f#\	nam	8dd\	nam
16B\	nam	16d\	nam	.	.	.	.
4B\	il-	4d\	il-	4g\	il-	4dd\	il-
4B\	-le	4d\	-le	4g#X\	-le	8dd\L	-le
.	.	.	.	.	.	8ee\J	.
!	!	!	!	!	!	!LO:LB:g=original	!
=11	=11	=11	=11	=11	=11	=11	=11
*2\right	*	*2\right	*	*2\right	*	*2\right	*
2A\	cap-	2d\	cap-	2a\	cap-	2ff#\	cap-
4AA/	-tus	4c#X\	-tus	8g\L	-tus	4ee\	-tus
.	.	.	.	8f#\J	.	.	.
!LO:LB:g=original	!	!	!	!	!	!	!
=12	=12	=12	=12	=12	=12	=12	=12
4D\	est,	4d\	est,	4f#\	est,	4dd\	est,
4r	.	4r	.	8f#\	qui	8dd\	qui
.	.	.	.	8f#\	cap-	8dd\	cap-
!	!	!	!	!LO:LB:g=original	!	!	!
4r	.	4r	.	8f#\	-ti-	8a\	-ti-
.	.	.	.	8f#\	-vum	8a\	-vum
!	!	!LO:LB:g=original	!	!	!	!	!
=13	=13	=13	=13	=13	=13	=13	=13
8.e\	te-	8.g\	te-	4r	.	4r	.
16e\	-ne-	16g\	-ne-	.	.	.	.
8c#X\	-bat	8e\	-bat	8r	.	8r	.
8r	.	8r	.	8e\L	pri-	8gg\L	pri-
4r	.	4r	.	8a\J	.	8ff#\J	.
.	.	.	.	8g\	-mum	8ee\	-mum
=14	=14	=14	=14	=14	=14	=14	=14
4r	.	4r	.	8.f#\	ho-	8.dd\	ho-
.	.	.	.	16f#\	-mi-	16a\	-mi-
4F#\	pri-	4d\	pri-	4f#\	-nem,	4a\	-nem,
4F#\	-mum	4A\	-mum	4r	.	4r	.
!	!	!	!	!	!	!LO:LB:g=original	!
=15	=15	=15	=15	=15	=15	=15	=15
4r	.	4r	.	8ee\	ho-	8.gg\	ho-
.	.	.	.	8ee\	-di-	.	.
.	.	.	.	.	.	16gg\	-di-
8r	.	8r	.	8cc#X\	-e,	8ee\	-e,
8E\	por-	8g\L	por-	8r	.	8r	.
8A\	.	8f#\J	.	4r	.	4r	.
8G\	-tas	8e\	-tas	.	.	.	.
!LO:LB:g=original	!	!	!	!LO:LB:g=original	!	!	!
=16	=16	=16	=16	=16	=16	=16	=16
4F#\	mor-	8.d\L	mor-	4r	.	4r	.
.	.	16A\Jk	.	.	.	.	.
4F#\	-tis,	4A\	-tis,	4r	.	4r	.
4r	.	4r	.	8a\	pa-	8a\	pa-
.	.	.	.	8a\	-ri-	8a\	-ri-
=17	=17	=17	=17	=17	=17	=17	=17
4r	.	4r	.	4.a\	-ter	4.ff#\	-ter
4r	.	4r	.	.	.	.	.
.	.	.	.	16a\LL	Sal-	16ff#\LL	Sal-
.	.	.	.	16g\JJ	.	16ee\JJ	.
4B\	Sal-	4B\	Sal-	8f#\	-va-	8dd#X\	-va-
.	.	.	.	8f#\	-tor	8dd#\	-tor
!	!	!LO:LB:g=original	!	!	!	!LO:LB:g=original	!
=18	=18	=18	=18	=18	=18	=18	=18
4.B\	-va-	4.g\	-va-	8g\	nos-	8ee\	nos-
.	.	.	.	8g\	-ter	8ee\	-ter
.	.	.	.	4r	.	4r	.
16B\LL	-tor	16g\LL	-tor	.	.	.	.
16A\JJ	.	16f#\JJ	.	.	.	.	.
8G\L	no-	8e\L	no-	8g\	pa-	8ee\	pa-
8F#\J	.	8d\J	.	8b\	-ri-	8ee\	-ri-
=19	=19	=19	=19	=19	=19	=19	=19
4E\	-ster	4c#X\	-ster	8.cc#X\	-ter	8.aa\	-ter
.	.	.	.	16b\	dis-	16gg\	dis-
8r	.	8r	.	4a\	-ru-	(4ff#\	-ru-
8A\	dis-	8A\	dis-	.	.	.	.
4A\	-ru-	8B\L	-ru-	4g\	.	4ee\)	.
.	.	8c#X\J	.	.	.	.	.
=20	=20	=20	=20	=20	=20	=20	=20
8.B\	-pit	8.d\	-pit	8f#\	-pit	8dd\	-pit
.	.	.	.	8f#\	des-	8dd\	des-
16B\	des-	16d\	des-	.	.	.	.
!LO:LB:g=original	!	!	!	!	!	!	!
4B\	-tru-	4d\	-tru-	4g\	-tru-	4dd\	-tru-
4B\	-xit	4d\	-xit	4g#X\	-xit	8dd\L	-xit
.	.	.	.	.	.	8ee\J	.
!	!	!	!	!	!	!LO:LB:g=original	!
=21	=21	=21	=21	=21	=21	=21	=21
2A\	qui-	2d\	qui-	2a\	qui-	2ff#\	qui-
4AA/	.	4c#X\	.	8a\L	.	4ee\	.
.	.	.	.	8g\J	.	.	.
!	!	!LO:LB:g=original	!	!	!	!	!
=22	=22	=22	=22	=22	=22	=22	=22
4D\	-dem,	4d\	-dem	4f#\	-dem,	4dd\	-dem,
4r	.	4r	.	4r	.	4r	.
4r	.	4r	.	4r	.	4r	.
!	!	!	!	!LO:LB:g=original	!	!	!
=23	=23	=23	=23	=23	=23	=23	=23
4A\	clau-	4c#X\	clau-	4e\	clau-	4gg\	clau-
8A\	-stra	8c#\	-stra	8e\	-stra	8gg\	-stra
8A\	in-	8c#\	in-	8e\	in-	8ee\	in-
8A\	-fer-	8d\	-fer-	8f#\	-fer-	8dd\	-fer-
8A\	-ni	8e\	-ni	8f#\	-ni	8cc#X\	-ni,
!	!	!	!	!	!	!LO:PB:g=original	!
=24	=24	=24	=24	=24	=24	=24	=24
8.D\	et	8.d\	et	8f#\	et	8.dd\	et
.	.	.	.	8f#\	sub-	.	.
16D\	sub-	16d\	sub-	.	.	16a\	sub-
!LO:LB:g=original	!	!	!	!	!	!	!
4D\	-ver-	4d\	-ver-	4f#\	-ver-	4a\	-ver-
8D\	-tit	8d\	-tit	8f#\	-tit	8a\	-tit
8D\	po-	8d\	po-	8f#\	po-	8a\	po-
=25	=25	=25	=25	=25	=25	=25	=25
8.C#X/	-ten-	8.e\	-ten-	8.g\	-ten-	8.a\	-ten-
16C#/	-ti-	16e\	-ti-	16g\	-ti-	16a\	-ti-
4.C#/	-as	2e\	-as	2g\	-as	2a\	-as
8r	.	.	.	.	.	.	.
!	!	!LO:PB:g=original	!	!LO:LB:g=original	!	!	!
=26	=26	=26	=26	=26	=26	=26	=26
2D\	Dia-	2d\	Dia-	2f#\	Dia-	2a\	Dia-
4D\	-bo-	4d\	-bo-	4f#\	-bo-	4a\	-bo-
=27	=27	=27	=27	=27	=27	=27	=27
!	!	!LO:TX:t=P:problem:takt poprawiony	!	!	!	!LO:TX:t=P:problem:takt poprawiony	!
2D\	-li.	4d\	-li.	4f#\	-li.	2a.	-li.
.	.	4r;	.	4r;	.	.	.
!LO:TX:b:t=Seq Responsorium 5.	!	!	!	!	!	!	!
4r	.	4r	.	4r	.	.	.
==	==	==	==	==	==	==	==
*-	*-	*-	*-	*-	*-	*-	*-
!!!system-decoration: [(s1,s2,s3,s4)]
!!!ENC: Filip Voros
!!!END: 2023-11-19
!!!ENC: Leszek Kubiak
!!!END: 2024-06-13
